X:29
T:Foxhunter, The
S:The Session: https://thesession.org/tunes/482#setting13386
C:Traditional
R:slip jig
K:D
M:9/8
L:1/8
Q:1/4=113
|:"D"(FGF) F2D"Em"G2E|"D"(FGF) F2D "A"E2"D"D|(FGF) F2D "G"G2B|"D"(AFD) D2F "A"E2"D"D:|
|:"G"(B=cB) (BAG) "D"(FGA)|"Em"B2E E2F G2B|"D"(AB^c) "Bm"(dcB)"A"(ABc)|"D"d2D D2G"A" E2"D"D:|
|:"D"(fgf) f2d "Em"g2e|"D"(fgf) f2d "A"e2"D"d|(fgf) f2d "G"g2b|"D"(afd) d2f "A"e2"D"d:|
|:"G"(gfe) (d=cB) "D"(AGF)|"Em"B2E E2F G2B|"D"(AB^c) "Bm"(dcB) "A"(ABc)|"D"d2D D2F"A" E2"D"D:|

